X: 29971
T: Oblique
R: jig
M: 6/8
K: Eminor
EGA ABG|AGA AGE|B2G AGE|GAA A3|
EGA ABG|AGB AGE|B2G AGE|DEE E3:|
DEE GEE|A2A- AGE|DEE GEE|B2G AGE|
DEE GEE|A2A- AGE|B2G AGE|DEE EEE:|

